X: 73
T:Corn Rigs
% Nottingham Music Database
%P:AAB
S:Athole p148, via EF
M:4/4
L:1/4
K:G
P:A
|:D|"G"G3/2A/2 c/2B/2A/2G/2|"D7"F/2E/2F/2G/2 AD|"G"G3/2A/2 "D7"B/2c/2A/2B/2|\
"G"Gd/2e/2 "D7"dD|
"G"G3/2A/2 c/2B/2A/2G/2|"D7"F/2E/2F/2G/2 AD|"C"E/2F/2G/2E/2 "D7"A/2G/2F/2E/2|\
"G"DG G:|
P:B
|:D|"G"Gd B/2c/2d/2G/2|"D7"F/2E/2F/2G/2 AD|"G"Gd/2c/2 "D7"B/2c/2A/2B/2|\
"G"Gd/2e/2 "D7"dD|
"G"Gd "C"e/2d/2c/2B/2|"Am"c/2B/2A/2G/2 "D7"FD|"C"E/2F/2G/2E/2 "D7"A/2G/2F/2E/2\
|"G"DG G3/2D/2|
"G"Gd B/2c/2d/2G/2|"D7"F/2E/2F/2G/2 AD|"G"Gd/2c/2 "D7"B/2c/2A/2B/2|\
"G"Gd/2e/2 de/2f/2|
"C"g/2f/2e/2d/2 e/2d/2c/2B/2|"Am"c/2B/2A/2G/2 "D7"G/2F/2E/2D/2|\
"C"E/2F/2G/2E/2 "D7"A/2G/2F/2E/2|"G"DG G:|<end>
<start>
